public/icon/svg/Telexfer.svg

<?xml version="1.0" encoding="UTF-8"?>
<svg width="1024px" height="1024px" viewBox="0 0 1024 1024" version="1.1" xmlns="http://www.w3.org/2000/svg" xmlns:xlink="http://www.w3.org/1999/xlink">
    <title>Telexfer</title>
    <defs>
        <linearGradient x1="98.5444688%" y1="66.5926116%" x2="9.41673079%" y2="59.9163823%" id="linearGradient-1">
            <stop stop-color="#763FDD" offset="0%"></stop>
            <stop stop-color="#763FDD" offset="68.4522469%"></stop>
            <stop stop-color="#664BE2" offset="100%"></stop>
        </linearGradient>
        <radialGradient cx="9.48629225%" cy="50%" fx="9.48629225%" fy="50%" r="90.5159158%" gradientTransform="translate(0.0949, 0.5), scale(1, 0.8313), rotate(-0.4002), scale(1, 3.2611), translate(-0.0949, -0.5)" id="radialGradient-2">
            <stop stop-color="#3CCBFD" stop-opacity="0.641717657" offset="0%"></stop>
            <stop stop-color="#5363E9" offset="49.7781261%"></stop>
            <stop stop-color="#6C49E0" offset="100%"></stop>
        </radialGradient>
    </defs>
    <g id="ICON-新版方图标" stroke="none" stroke-width="1" fill="none" fill-rule="evenodd">
        <g id="Telexfer">
            <rect id="蒙版路径" fill="#031133" x="0" y="0" width="1024" height="1024"></rect>
            <path d="M748.101552,219.947153 C814.622865,299.791988 848.992226,341.133065 851.209633,343.970383 C852.853283,346.073542 853.762893,349.916143 852.276602,352.600605 C850.755215,355.348454 846.786125,356.915792 844.024271,357.054735 C822.644613,358.130297 658.072018,357.054735 621.044777,357.054735 C616.77808,357.054735 614.324742,352.909793 614.113265,352.600605 C613.836521,352.195995 611.317493,349.002304 614.113265,344.99266 C622.205336,335.319557 656.881817,293.637722 718.14271,219.947153 C722.929512,213.663699 727.83968,210.521972 732.873215,210.521972 C737.90675,210.521972 742.982862,213.663699 748.101552,219.947153 Z" id="三角形" fill="url(#linearGradient-1)" transform="translate(732.9175, 284.0274) scale(1, -1) translate(-732.9175, -284.0274)"></path>
            <path d="M748.101552,670.947153 C814.622865,750.791988 848.992226,792.133065 851.209633,794.970383 C852.853283,797.073542 853.762893,800.916143 852.276602,803.600605 C850.755215,806.348454 846.786125,807.915792 844.024271,808.054735 C822.644613,809.130297 658.072018,808.054735 621.044777,808.054735 C616.77808,808.054735 614.324742,803.909793 614.113265,803.600605 C613.836521,803.195995 611.317493,800.002304 614.113265,795.99266 C622.205336,786.319557 656.881817,744.637722 718.14271,670.947153 C722.929512,664.663699 727.83968,661.521972 732.873215,661.521972 C737.90675,661.521972 742.982862,664.663699 748.101552,670.947153 Z" id="三角形" fill="url(#linearGradient-1)"></path>
            <path d="M184,211 C186.642385,211 260.975718,211 407,211 C421.543235,210.74273 434.080597,213.193451 444.612086,218.352162 C455.143575,223.510873 464.622256,231.844421 473.04813,243.352806 L655.003104,466.975279 C663.205117,475.999173 667.306123,485.527985 667.306123,495.561712 C667.306123,505.59544 663.205117,515.695008 655.003104,525.860416 L474.150606,751.492759 C458.444268,771.486109 447.337602,784.522862 440.83061,790.603017 C425.358477,805.060229 411.786486,808.532763 407,808.532763 C333.745483,808.646461 259.412149,808.802207 184,809 C174.741265,809.439884 170.111898,806.70891 170.111898,800.807077 C170.111898,797.82818 172.668399,793.350654 183.721611,780.357787 C226.657173,723.522737 349.596925,560.834355 377.354874,524.556437 C387.71402,508.944469 388.445035,498.21012 388.445035,495.561712 C388.445035,492.665292 387.567358,483.221381 372.508359,464.319898 C338.154008,424.832581 191.486108,246.699929 184,237.486168 C171.399665,222.886422 170.847292,221.685249 171.263765,216.631823 C172.147497,211.546846 180.036422,211 184,211 Z" id="矩形" fill="url(#radialGradient-2)"></path>
        </g>
    </g>
</svg>

<svg xmlns="http://www.w3.org/2000/svg" width="1024" height="1024"><defs><radialGradient id="b" cx="9.486%" cy="50%" r="90.516%" fx="9.486%" fy="50%" gradientTransform="matrix(.99998 -.0058 .02278 2.71089 -.011 -.855)"><stop offset="0%" stop-color="#3CCBFD" stop-opacity=".642"/><stop offset="49.778%" stop-color="#5363E9"/><stop offset="100%" stop-color="#6C49E0"/></radialGradient><linearGradient id="a" x1="98.544%" x2="9.417%" y1="66.593%" y2="59.916%"><stop offset="0%" stop-color="#763FDD"/><stop offset="68.452%" stop-color="#763FDD"/><stop offset="100%" stop-color="#664BE2"/></linearGradient></defs><g fill="none" fill-rule="evenodd"><path fill="#031133" d="M0 0h1024v1024H0z"/><path fill="url(#a)" d="M748.102 219.947c66.52 79.845 100.89 121.186 103.108 124.023 1.643 2.104 2.553 5.946 1.067 8.63-1.522 2.748-5.49 4.316-8.253 4.455-21.38 1.075-185.952 0-222.98 0-4.266 0-6.72-4.145-6.93-4.454-.277-.405-2.797-3.599 0-7.608 8.091-9.673 42.768-51.355 104.029-125.046 4.787-6.283 9.697-9.425 14.73-9.425 5.034 0 10.11 3.142 15.229 9.425" transform="matrix(1 0 0 -1 0 568.055)"/><path fill="url(#a)" d="M748.102 670.947c66.52 79.845 100.89 121.186 103.108 124.023 1.643 2.104 2.553 5.946 1.067 8.63-1.522 2.748-5.49 4.316-8.253 4.455-21.38 1.075-185.952 0-222.98 0-4.266 0-6.72-4.145-6.93-4.454-.277-.405-2.797-3.599 0-7.608 8.091-9.673 42.768-51.355 104.029-125.046 4.787-6.283 9.697-9.425 14.73-9.425 5.034 0 10.11 3.142 15.229 9.425"/><path fill="url(#b)" d="M184 211h223c14.543-.257 27.08 2.193 37.612 7.352 10.532 5.159 20.01 13.492 28.436 25l181.955 223.623c8.202 9.024 12.303 18.553 12.303 28.587 0 10.033-4.1 20.133-12.303 30.298L474.151 751.493c-15.707 19.993-26.813 33.03-33.32 39.11-15.473 14.457-29.045 17.93-33.831 17.93-73.255.113-147.588.27-223 .467-9.259.44-13.888-2.291-13.888-8.193 0-2.979 2.556-7.456 13.61-20.45 42.935-56.834 165.875-219.523 193.633-255.8 10.359-15.613 11.09-26.347 11.09-28.995 0-2.897-.878-12.34-15.937-31.242C338.154 424.833 191.486 246.7 184 237.486c-12.6-14.6-13.153-15.8-12.736-20.854.883-5.085 8.772-5.632 12.736-5.632"/></g></svg>
